X:1
T:Domine Deus salutis meae
T:Giovanni Maria Scorzutto
T:Source : Ghirlanda Sacra---Venetia---Ang.Gardano (B.Magni)---1625. Editor : André Vierendeels (18/12/16).
T:Notes : Original clefs : C1, F4 Editorial accidentals above the staff Figures in BC are notated in original print Music collected by Leonardo Simonetti
T:Domine Deus salutis meae
T:©
T:©
T:©
T:©
T:©
C:Giovanni Maria Scorzutto
Z:©
%%score 1 2
L:1/8
Q:1/4=120
M:4/4
K:F
V:1 treble nm="Soprano" snm="S"
V:2 bass nm="MusicXML Part"
V:1
 G6 AB | ^F4 F2 A2 | BA cB A4 | G4 z4 | z2 G2 G2 FF | E4 E2 c2 | c2 BB A4 | A2 d2 d2 cc | %8
w: Do- mi- ne|De- us, sa-|lu- * tis _ me-|ae,|in di- e cla-|ma- vi, in|di- e cla- ma-|vi, in di- e cla-|
 B4 B2 A2 | ^F4 G4 | ABcB A4 | G8 | z8 | G3 G GFFE | E2 E2 z4 | c3 c cBBA | A4 A2 d/c/B/A/ | %17
w: ma- vi et|no- cte|co- * * * ram|te,||in- tret in con- spe- ctu|tu- o,|in- tret in con- spe- ctu|tu- o, o- * * *|
 B6 cd | ABcB A4 | G8 | G6 AB | ^F4 F2 A2 | BA cB A4 | G8 | z2 G4 GA | B2 BB c4 | d2 f4 _ed | %27
w: ra- ti- o|me- * * * *|a,|Do- mi- ne|De- us, sa-|lu- * tis _ me-|ae,|qua- re- *|ple- ta est ma-|lis a- ni- ma|
 c4 B4 | z dAB c2 c2 | z cGA B2 Bc | d2 c2 d4 | c6 B2 | A8 | G2 G4 AB | ^F4 F2 A2 | BA cB A4 | G8 | %37
w: me- a,|et vi- ta me- a,|et vi- ta me- a in-|fer- no a-|pro- pin-|qua-|vit Do- mi- ne|De- us sa-|lu- * tis _ me-|ae,|
 G3 A BGcG | A3 A A4 | d3 c BGAB | cG_ed c4 | B2 d2 ^F3 F | ^F2 A3 A B2 | c2 d2 c4 | B4 A3 A | %45
w: mi- se- r- re me- i|Do- mi- ne,|quo- ni- am ad te cla-|ma- vu to- ta di-|e, lae- ti- fi-|ca a- ni- ma|ser- vi tu-|i, quo- ni-|
 A2 AA B2 BB | c2 cc d2 cB | A8 | G2 G4 AB | ^F4 F2 A2 | BA cB A4 | G8 | z2 G2 BA BG | %53
w: am ad te Do- mi- ne|a- ni- ma me- a le-|va-|vi Do- mi- ne|De- us, sa-|lu- * tis _ me-|ae,|al- le- * lu- *|
 A2 c2 dc d=B | c4 z2 F2 | AG AF G2 B2 | cB cA B4 | z2 D2 FE FD | E2 G2 AG A^F | G4 c4- | c4 B4 | %61
w: ia, al le- * lu- *|ia al-|le- * lu- * ia, al|le- * lu- * ia,|al- le- * li- *|ia, al- le- * lu- *|ia al-|* le-|
 A8 | G8 |] %63
w: lu-|ia.|
V:2
"^BC" G,2 F,2 _E,2 C,2 | D,4 D,4 |"^6" G,2 C,2 D,4 | G,,2 G,2 G,2 F,F, | E,4 E,2 D,2 | %5
 D,2 C,B,, A,,4 | A,2 G,2 G,2 F,E, | D,2 B,,2 B,,2 A,,A,, | G,,6 D,2 |"^6" D,4 =B,,4 | C,4 D,4 | %11
 G,,8 | G,3 G, G,F,F,E, | E,4 D,4 | C,3 C, C,B,,B,,A,, | A,,4 G,,4 | D,4 D,4 | G,2 F,2 _E,2 D,2 | %18
 C,4 D,4 | G,,8 |"^6" G,2 F,2 _E,2 C,2 | D,4 D,4 | G,2 C,2 D,4 | G,,8 | G,6 G,F, | _E,2 E,G, F,4 | %26
 B,,6 _E,2 | F,4 B,,4 | B,,2 D,2 C,4 | C,4 B,,4 | B,,2 F,,2 B,,2 G,,2 | A,,2 F,,4 G,,2 | D,8 | %33
 G,,2 G,4 C,2 | D,4 D,4 | G,2 C,2 D,4 | G,,8 | G,3 F, _E,4 | D,4 D,3 C, | %39
"^6" B,,G,,B,,C, D,_E,F,D, | _E,4 F,4 | B,,4 D,4 | D,6 G,2 |"^6" F,2 D,2 F,4 | B,,4 D,4 | D,4 G,4 | %46
 F,4 B,,2 C,2 | D,8 | G,,2 G,4 C,2 | D,4 D,4 | G,2 C,2 D,4 | G,,8 | G,6 _E,2 | F,2 A,2 G,4 | %54
 C,4 F,4- | F,2 D,2 _E,2 G,2 | F,4 B,,4 | B,,4 D,2 B,,2 | C,2 E,2 F,2 D,2 | _E,4 C,4 | D,8- | D,8 | %62
 G,,8 |] %63

